!!!COM: Palestrina, Giovanni Perluigi da
!!!OPR: Missa Ave regina coelorum
!!!OMD: Credo
!!!OTL: Et ascendit
**kern	**kern	**kern
*Ibass	*Itenor	*Icalto
!Bassus	!Tenor	!Altus
*clefF4	*clefGv2	*clefG2
*k[]	*k[]	*k[]
*C:ion	*C:ion	*C:ion
*M4/2	*M4/2	*M4/2
=133	=133	=133
0C	1c	1e
.	2r	2r
.	2e	2g
=134	=134	=134
0r	2f	2a
.	2e	2cc
.	2d	2b
.	[2f	2a
=135	=135	=135
0r	4f]	2.cc
.	4e	.
.	4c	.
.	4d	4b
.	4e	4g
.	4f	4a
.	4g	4b
.	4e	4g
=136	=136	=136
1r	2f	4a
.	.	4b
.	2e	2.cc
1G	1d	.
.	.	8b
.	.	8a
.	.	2b
=137	=137	=137
2A	2r	2.e
2c	2c	.
.	.	4f
2B	2d	2g
2A	2f	2a
=138	=138	=138
2.c	2e	1g
.	2.g	.
4B	.	.
4G	.	1r
4A	4f	.
4B	4d	.
4G	4e	.
=139	=139	=139
4A	4f	0r
4B	4g	.
1c	2e	.
.	1d	.
2B	.	.
=140	=140	=140
1c	1e	1g
1r	1g	1e
=141	=141	=141
1c	1e	2r
.	.	2g
1A	2r	2.cc
.	2c	.
.	.	4b
=142	=142	=142
2r	2.f	2a
2F	.	2cc
.	4e	.
2G	2d	2b
2A	[2c	[2a
=143	=143	=143
2F	4c]	2a]
.	4d	.
2G	2B	2.g
1D	1A	.
.	.	8f#
.	.	8e
.	.	2f#
=144	=144	=144
1G	0B	1g
1E	.	1g
=145	=145	=145
1r	1g	1e
1c	1e	2r
.	.	2g
=146	=146	=146
1A	2r	2.cc
.	2c	.
.	.	4b
2r	2.f	2.a
2F	.	.
.	4e	4g
=147	=147	=147
2.B-	2d	4f
.	.	4e
.	2f	2d
4A	.	.
2G	2e	2g
2B-	[2d	4f
.	.	4e
=148	=148	=148
1A	4d]	4f
.	4c	4e
.	1c	4e
.	.	8d
.	.	8c
1G	.	1d
.	2B	.
=149	=149	=149
0C	0c	0e
*-	*-	*-
!!!CDT: 1525/^1526/-1594/2/2
!!!OCY: Italia
!!!AGN: Mass (Paraphrase)
!!!AST: renaissance, vocal
!!!ASW: Antiphon
!!!PWK: Masses, Book 9
!!!RNB: Cadence finals: G
!!!YOR: Le Opere Complete, v. 25, p. 1
!!!YOO: Rome, Italy: Fratelli Scalera
!!!END: 1992//
!!!EED: John Miller
!!!YEC: Copyright 2000, John Miller
!!!YEN: United States of America
!!!YEM: Rights to all derivative electronic formats reserved.
!!!YEM: Refer to licensing agreement for further details.
!!!YEM: This file must be accompanied by the licensing agreement.
!!!YEM: A copy of the licensing agreement may be found at http://www.music-cog.ohio-state.edu/HumdrumDatabases/Palestrina/license.txt
!!!EMD: converted to Humdrum by Bret Aarden
